X: 32774
T: Pondering
R: jig
M: 6/8
K: Dmajor
|:DFA cde|dcA GAB|FAd EAc|dcA GAB|
DFA cde|dcA GAB|AdB cAG|EDC D3:|
|:A,AB =cBA|eag fd=c|BGG dGG|Bd=c BAG|
[1 AAB =cBA|eag fd=c|BGG dGG|ABA A3:|
[2 A,2B =cBA|eag fed|gdB GAB|ABA GFE||

